resources/svg/gamepad.svg

<svg xmlns="http://www.w3.org/2000/svg" viewBox="0 0 24 24" fill="currentColor"><path fill="none" stroke="currentColor" stroke-width="2" d="M12,6 L12,2 M12,6 C14.4983324,6.0444148 16.0056152,6 17,6 C19,6 21,6.5 22,10 C23,13.5 23,15.5 23,18 C23,20.5 21,21 19,21 C17,21 15.9456522,17 12,17 C8.05434783,17 7,21 5,21 C3,21 1,20.5 1,18 C1,15.5 1,13.5 2,10 C3,6.5 5,6 7,6 C7.99438477,6 9.50166757,6.0444148 12,6 L12,6 L12,6 Z M18,15 C18.5522847,15 19,14.5522847 19,14 C19,13.4477153 18.5522847,13 18,13 C17.4477153,13 17,13.4477153 17,14 C17,14.5522847 17.4477153,15 18,15 Z M14,12 C14.5522847,12 15,11.5522847 15,11 C15,10.4477153 14.5522847,10 14,10 C13.4477153,10 13,10.4477153 13,11 C13,11.5522847 13.4477153,12 14,12 Z M4,12 L10,12 M7,9 L7,15"/></svg>

<svg viewBox="0 0 24 24"><path fill="none" stroke="currentColor" stroke-width="2" d="M12 6V2m0 4c2.498.044 4.006 0 5 0c2 0 4 .5 5 4s1 5.5 1 8s-2 3-4 3s-3.054-4-7-4s-5 4-7 4s-4-.5-4-3s0-4.5 1-8s3-4 5-4c.994 0 2.502.044 5 0h0zm6 9a1 1 0 1 0 0-2a1 1 0 0 0 0 2zm-4-3a1 1 0 1 0 0-2a1 1 0 0 0 0 2zM4 12h6M7 9v6"/></svg>
